www/images/swipe-lateral@2x.svg

<svg fill="none" height="54" viewBox="0 0 54 54" width="54" xmlns="http://www.w3.org/2000/svg"><g fill="#000"><path d="m17.1882 19.8774c.1496.1554.3549.245.5706.249.2157.0041.4242-.0778.5796-.2274.1554-.1497.2449-.3549.249-.5706.004-.2157-.0778-.4242-.2274-.5796l-1.08-1.1232h5.94c.2148 0 .4208-.0854.5727-.2373s.2373-.3579.2373-.5727-.0854-.4209-.2373-.5728-.3579-.2372-.5727-.2372h-5.94l1.08-1.1232c.1416-.1555.2172-.3599.2109-.5701-.0064-.2102-.0943-.4097-.2451-.5562-.1508-.1466-.3526-.2288-.5629-.2292-.2103-.0005-.4125.0809-.5639.2269l-2.4354 2.5002c-.1468.1512-.2289.3536-.2289.5643s.0821.4131.2289.5643z"/><path d="m38.0592 13.743c-.1517.1519-.2369.3577-.2369.5724 0 .2146.0852.4205.2369.5724l1.08 1.1232h-4.2768c-.2149 0-.4209.0853-.5728.2372s-.2372.358-.2372.5728.0853.4208.2372.5727c.1519.152.3579.2373.5728.2373h4.2714l-1.08 1.1232c-.1417.1554-.2173.3599-.2109.5701s.0942.4096.245.5562.3527.2288.563.2292.4125-.0809.5639-.2269l2.4246-2.4948c.1468-.1512.2289-.3536.2289-.5643s-.0821-.4131-.2289-.5643l-2.4246-2.4948c-.074-.0782-.1628-.1408-.2612-.1843s-.2045-.0669-.3121-.0689-.2145.0174-.3145.0572-.191.099-.2678.1744z"/><path d="m16.6212 42.3738c.0847.1969.2439.3522.4428.432l9.936 4.0122c.1001.0438.208.067.3172.0681.1092.001.2175-.02.3184-.0619.1009-.0418.1923-.1037.2687-.1818.0763-.0781.1361-.1708.1757-.2726l1.3878-3.429 2.9322-1.9008c.141-.0906.2504-.2226.3132-.378l3.4668-8.4888c.258-.6417.2512-1.3595-.0191-1.9962-.2702-.6367-.7818-1.1402-1.4227-1.4004l-.0864-.0324c-.324-.1309-.6711-.1952-1.0206-.189.1901-.6238.1391-1.2962-.1429-1.8842s-.7744-1.0487-1.3799-1.291c-.3075-.1222-.6356-.1845-.9666-.1836l2.2626-5.5998c.1282-.3183.1923-.6589.1887-1.002-.0037-.3432-.075-.6823-.21-.9978-.1349-.3155-.3308-.6013-.5764-.841s-.5361-.4286-.8549-.5558c-.518-.2072-1.089-.2424-1.6286-.1004-.5396.1419-1.0193.4535-1.3684.8888-.2582-.2867-.5774-.5118-.9342-.6588-.6397-.2525-1.3532-.2421-1.9853.029-.6321.271-1.1315.7807-1.3897 1.4182l-3.6504 8.91-.0378-.2268c.0018-.0306.0018-.0612 0-.0918-.1055-.328-.2762-.6314-.5018-.8919-.2256-.2604-.5015-.4727-.8111-.6239-.3096-.1513-.6466-.2385-.9907-.2564s-.6883.0339-1.012.1522c-.6054.2167-1.1076.6524-1.4075 1.2212-.2999.5689-.3757 1.2294-.2125 1.8514l1.9872 10.476-1.3932 3.4506c-.0407.0995-.0612.2062-.0603.3137.001.1076.0233.2139.0657.3127zm.9828-14.8878s0-.0486 0-.0702c-.065-.2292-.041-.4745.0672-.6868.1081-.2122.2924-.3758.516-.458.2314-.0863.4875-.0781.7129.023.2254.101.4019.2868.4913.517l.54 2.862c.0336.171.1213.3266.2503.4437.129.1172.2923.1896.4657.2066.1734.0169.3476-.0224.4969-.1123.1492-.09.2655-.2256.3315-.3868l4.6224-11.4642c.0994-.2416.2904-.434.5312-.5352s.5119-.1029.754-.0048c.2403.0994.4317.2894.5328.529s.1037.5093.0072.7508l-3.672 9.1422c-.0694.1968-.0602.4128.0257.603s.2419.3399.4355.4179.4098.0782.6035.0007c.1938-.0775.3502-.2268.4365-.4168l3.0348-7.5114 1.2474-3.0888c.0994-.239.2886-.4294.5269-.5304s.5067-.1044.7475-.0096c.2416.0993.4341.2903.5353.5312.1012.2408.1029.5119.0047.754l-4.2552 10.584c-.0684.1789-.0711.3763-.0078.557.0633.1808.1887.3333.3538.4304.165.0971.3592.1326.548.1001.1887-.0325.3599-.1308.483-.2775.0487-.0588.0887-.1243.1188-.1944l1.1178-2.7648c.0994-.2416.2904-.434.5312-.5352s.5119-.1029.754-.0048c.2403.0994.4317.2894.5328.529s.1037.5093.0072.7508l-1.566 3.9096c-.0452.0995-.0699.2072-.0724.3165-.0025.1094.0171.2181.0577.3196.0407.1015.1014.1938.1787.2712.0772.0774.1693.1384.2707.1793.1014.0408.2101.0607.3194.0585.1094-.0023.2171-.0267.3168-.0717.0996-.045.1891-.1097.2631-.1903.074-.0805.1308-.1752.1672-.2783l.3456-.8532v-.0324l.4266-1.0152c.0994-.2403.2895-.4317.5291-.5328.2395-.1011.5093-.1037.7507-.0072l.0864.0324c.2416.0993.4341.2903.5353.5311.1012.2409.1029.512.0047.7541l-3.3264 8.2404-2.9916 1.9116c-.141.0906-.2504.2226-.3132.378l-1.1826 2.9214-8.4132-3.402 1.1772-2.9214c.0578-.1439.0728-.3014.0432-.4536z"/><path d="m17.1882 19.8774c.1496.1554.3549.245.5706.249.2157.0041.4242-.0778.5796-.2274.1554-.1497.2449-.3549.249-.5706.004-.2157-.0778-.4242-.2274-.5796l-1.08-1.1232h5.94c.2148 0 .4208-.0854.5727-.2373s.2373-.3579.2373-.5727-.0854-.4209-.2373-.5728-.3579-.2372-.5727-.2372h-5.94l1.08-1.1232c.1416-.1555.2172-.3599.2109-.5701-.0064-.2102-.0943-.4097-.2451-.5562-.1508-.1466-.3526-.2288-.5629-.2292-.2103-.0005-.4125.0809-.5639.2269l-2.4354 2.5002c-.1468.1512-.2289.3536-.2289.5643s.0821.4131.2289.5643z"/><path d="m38.0592 13.743c-.1517.1519-.2369.3577-.2369.5724 0 .2146.0852.4205.2369.5724l1.08 1.1232h-4.2768c-.2149 0-.4209.0853-.5728.2372s-.2372.358-.2372.5728.0853.4208.2372.5727c.1519.152.3579.2373.5728.2373h4.2714l-1.08 1.1232c-.1417.1554-.2173.3599-.2109.5701s.0942.4096.245.5562.3527.2288.563.2292.4125-.0809.5639-.2269l2.4246-2.4948c.1468-.1512.2289-.3536.2289-.5643s-.0821-.4131-.2289-.5643l-2.4246-2.4948c-.074-.0782-.1628-.1408-.2612-.1843s-.2045-.0669-.3121-.0689-.2145.0174-.3145.0572-.191.099-.2678.1744z"/></g><path d="m17.604 27.486s0-.0486 0-.0702c-.065-.2292-.041-.4745.0672-.6868.1081-.2122.2924-.3758.516-.458.2314-.0863.4875-.0781.7129.023.2254.101.4019.2868.4913.517l.54 2.862c.0336.171.1213.3266.2503.4437.129.1172.2923.1896.4657.2066.1734.0169.3476-.0224.4969-.1123.1492-.09.2655-.2256.3315-.3868l4.6224-11.4642c.0994-.2416.2904-.434.5312-.5352s.5119-.1029.754-.0048c.2403.0994.4317.2894.5328.529s.1037.5093.0072.7508l-3.672 9.1422c-.0694.1968-.0602.4128.0257.603s.2419.3399.4355.4179.4098.0782.6035.0007c.1938-.0775.3502-.2268.4365-.4168l3.0348-7.5114 1.2474-3.0888c.0994-.239.2886-.4294.5269-.5304s.5067-.1044.7475-.0096c.2416.0993.4341.2903.5353.5312.1012.2408.1029.5119.0047.754l-4.2552 10.584c-.0684.1789-.0711.3763-.0078.557.0633.1808.1887.3333.3538.4304.165.0971.3592.1326.548.1001.1887-.0325.3599-.1308.483-.2775.0487-.0588.0887-.1243.1188-.1944l1.1178-2.7648c.0994-.2416.2904-.434.5312-.5352s.5119-.1029.754-.0048c.2403.0994.4317.2894.5328.529s.1037.5093.0072.7508l-1.566 3.9096c-.0452.0995-.0699.2072-.0724.3165-.0025.1094.0171.2181.0577.3196.0407.1015.1014.1938.1787.2712.0772.0774.1693.1384.2707.1793.1014.0408.2101.0607.3194.0585.1094-.0023.2171-.0267.3168-.0717.0996-.045.1891-.1097.2631-.1903.074-.0805.1308-.1752.1672-.2783l.3456-.8532v-.0324l.4266-1.0152c.0994-.2403.2895-.4317.5291-.5328.2395-.1011.5093-.1037.7507-.0072l.0864.0324c.2416.0993.4341.2903.5353.5311.1012.2409.1029.512.0047.7541l-3.3264 8.2404-2.9916 1.9116c-.141.0906-.2504.2226-.3132.378l-1.1826 2.9214-8.4132-3.402 1.1772-2.9214c.0578-.1439.0728-.3014.0432-.4536z" fill="#fff"/></svg>

<svg width="54" height="54" viewBox="0 0 54 54" fill="none" xmlns="http://www.w3.org/2000/svg">
<path d="M17.1882 19.8774C17.3378 20.0328 17.5431 20.1224 17.7588 20.1264C17.9745 20.1305 18.183 20.0486 18.3384 19.899C18.4938 19.7493 18.5833 19.5441 18.5874 19.3284C18.5914 19.1127 18.5096 18.9042 18.36 18.7488L17.28 17.6256H23.22C23.4348 17.6256 23.6408 17.5402 23.7927 17.3883C23.9446 17.2364 24.03 17.0304 24.03 16.8156C24.03 16.6008 23.9446 16.3947 23.7927 16.2428C23.6408 16.0909 23.4348 16.0056 23.22 16.0056H17.28L18.36 14.8824C18.5016 14.7269 18.5772 14.5225 18.5709 14.3123C18.5645 14.1021 18.4766 13.9026 18.3258 13.7561C18.175 13.6095 17.9732 13.5273 17.7629 13.5269C17.5526 13.5264 17.3504 13.6078 17.199 13.7538L14.7636 16.254C14.6168 16.4052 14.5347 16.6076 14.5347 16.8183C14.5347 17.029 14.6168 17.2314 14.7636 17.3826L17.1882 19.8774Z" fill="black"/>
<path d="M38.0592 13.743C37.9075 13.8949 37.8223 14.1007 37.8223 14.3154C37.8223 14.53 37.9075 14.7359 38.0592 14.8878L39.1392 16.011H34.8624C34.6475 16.011 34.4415 16.0963 34.2896 16.2482C34.1377 16.4001 34.0524 16.6062 34.0524 16.821C34.0524 17.0358 34.1377 17.2418 34.2896 17.3937C34.4415 17.5457 34.6475 17.631 34.8624 17.631H39.1338L38.0538 18.7542C37.9121 18.9096 37.8365 19.1141 37.8429 19.3243C37.8493 19.5345 37.9371 19.7339 38.0879 19.8805C38.2387 20.0271 38.4406 20.1093 38.6509 20.1097C38.8612 20.1101 39.0634 20.0288 39.2148 19.8828L41.6394 17.388C41.7862 17.2368 41.8683 17.0344 41.8683 16.8237C41.8683 16.613 41.7862 16.4106 41.6394 16.2594L39.2148 13.7646C39.1408 13.6864 39.052 13.6238 38.9536 13.5803C38.8552 13.5368 38.7491 13.5134 38.6415 13.5114C38.5339 13.5094 38.427 13.5288 38.327 13.5686C38.227 13.6084 38.136 13.6676 38.0592 13.743Z" fill="black"/>
<path d="M16.6212 42.3738C16.7059 42.5707 16.8651 42.726 17.064 42.8058L27 46.818C27.1001 46.8618 27.208 46.885 27.3172 46.8861C27.4264 46.8871 27.5347 46.8661 27.6356 46.8242C27.7365 46.7824 27.8279 46.7205 27.9043 46.6424C27.9806 46.5643 28.0404 46.4716 28.08 46.3698L29.4678 42.9408L32.4 41.04C32.541 40.9494 32.6504 40.8174 32.7132 40.662L36.18 32.1732C36.438 31.5315 36.4312 30.8137 36.1609 30.177C35.8907 29.5403 35.3791 29.0368 34.7382 28.7766L34.6518 28.7442C34.3278 28.6133 33.9807 28.549 33.6312 28.5552C33.8213 27.9314 33.7703 27.259 33.4883 26.671C33.2063 26.083 32.7139 25.6223 32.1084 25.38C31.8009 25.2578 31.4728 25.1955 31.1418 25.1964L33.4044 19.5966C33.5326 19.2783 33.5967 18.9377 33.5931 18.5946C33.5894 18.2514 33.5181 17.9123 33.3831 17.5968C33.2482 17.2813 33.0523 16.9955 32.8067 16.7558C32.5611 16.5161 32.2706 16.3272 31.9518 16.2C31.4338 15.9928 30.8628 15.9576 30.3232 16.0996C29.7836 16.2415 29.3039 16.5531 28.9548 16.9884C28.6966 16.7017 28.3774 16.4766 28.0206 16.3296C27.3809 16.0771 26.6674 16.0875 26.0353 16.3586C25.4032 16.6296 24.9038 17.1393 24.6456 17.7768L20.9952 26.6868L20.9574 26.46C20.9592 26.4294 20.9592 26.3988 20.9574 26.3682C20.8519 26.0402 20.6812 25.7368 20.4556 25.4763C20.23 25.2159 19.9541 25.0036 19.6445 24.8524C19.3349 24.7011 18.9979 24.6139 18.6538 24.596C18.3097 24.5781 17.9655 24.6299 17.6418 24.7482C17.0364 24.9649 16.5342 25.4006 16.2343 25.9694C15.9344 26.5383 15.8586 27.1988 16.0218 27.8208L18.009 38.2968L16.6158 41.7474C16.5751 41.8469 16.5546 41.9536 16.5555 42.0611C16.5565 42.1687 16.5788 42.275 16.6212 42.3738ZM17.604 27.486C17.604 27.486 17.604 27.4374 17.604 27.4158C17.539 27.1866 17.563 26.9413 17.6712 26.729C17.7793 26.5168 17.9636 26.3532 18.1872 26.271C18.4186 26.1847 18.6747 26.1929 18.9001 26.294C19.1255 26.395 19.302 26.5808 19.3914 26.811L19.9314 29.673C19.965 29.844 20.0527 29.9996 20.1817 30.1167C20.3107 30.2339 20.474 30.3063 20.6474 30.3233C20.8208 30.3402 20.995 30.3009 21.1443 30.211C21.2935 30.121 21.4098 29.9854 21.4758 29.8242L26.0982 18.36C26.1976 18.1184 26.3886 17.926 26.6294 17.8248C26.8702 17.7236 27.1413 17.7219 27.3834 17.82C27.6237 17.9194 27.8151 18.1094 27.9162 18.349C28.0173 18.5886 28.0199 18.8583 27.9234 19.0998L24.2514 28.242C24.182 28.4388 24.1912 28.6548 24.2771 28.845C24.363 29.0352 24.519 29.1849 24.7126 29.2629C24.9062 29.3409 25.1224 29.3411 25.3161 29.2636C25.5099 29.1861 25.6663 29.0368 25.7526 28.8468L28.7874 21.3354L30.0348 18.2466C30.1342 18.0076 30.3234 17.8172 30.5617 17.7162C30.8 17.6152 31.0684 17.6118 31.3092 17.7066C31.5508 17.8059 31.7433 17.9969 31.8445 18.2378C31.9457 18.4786 31.9474 18.7497 31.8492 18.9918L27.594 29.5758C27.5256 29.7547 27.5229 29.9521 27.5862 30.1328C27.6495 30.3136 27.7749 30.4661 27.94 30.5632C28.105 30.6603 28.2992 30.6958 28.488 30.6633C28.6767 30.6308 28.8479 30.5325 28.971 30.3858C29.0197 30.327 29.0597 30.2615 29.0898 30.1914L30.2076 27.4266C30.307 27.185 30.498 26.9926 30.7388 26.8914C30.9796 26.7902 31.2507 26.7885 31.4928 26.8866C31.7331 26.986 31.9245 27.176 32.0256 27.4156C32.1267 27.6552 32.1293 27.9249 32.0328 28.1664L30.4668 32.076C30.4216 32.1755 30.3969 32.2832 30.3944 32.3925C30.3919 32.5019 30.4115 32.6106 30.4521 32.7121C30.4928 32.8136 30.5535 32.9059 30.6308 32.9833C30.708 33.0607 30.8001 33.1217 30.9015 33.1626C31.0029 33.2034 31.1116 33.2233 31.2209 33.2211C31.3303 33.2188 31.438 33.1944 31.5377 33.1494C31.6373 33.1044 31.7268 33.0397 31.8008 32.9591C31.8748 32.8786 31.9316 32.7839 31.968 32.6808L32.3136 31.8276V31.7952L32.7402 30.78C32.8396 30.5397 33.0297 30.3483 33.2693 30.2472C33.5088 30.1461 33.7786 30.1435 34.02 30.24L34.1064 30.2724C34.348 30.3717 34.5405 30.5627 34.6417 30.8035C34.7429 31.0444 34.7446 31.3155 34.6464 31.5576L31.32 39.798L28.3284 41.7096C28.1874 41.8002 28.078 41.9322 28.0152 42.0876L26.8326 45.009L18.4194 41.607L19.5966 38.6856C19.6544 38.5417 19.6694 38.3842 19.6398 38.232L17.604 27.486Z" fill="black"/>
<path d="M17.1882 19.8774C17.3378 20.0328 17.5431 20.1224 17.7588 20.1264C17.9745 20.1305 18.183 20.0486 18.3384 19.899C18.4938 19.7493 18.5833 19.5441 18.5874 19.3284C18.5914 19.1127 18.5096 18.9042 18.36 18.7488L17.28 17.6256H23.22C23.4348 17.6256 23.6408 17.5402 23.7927 17.3883C23.9446 17.2364 24.03 17.0304 24.03 16.8156C24.03 16.6008 23.9446 16.3947 23.7927 16.2428C23.6408 16.0909 23.4348 16.0056 23.22 16.0056H17.28L18.36 14.8824C18.5016 14.7269 18.5772 14.5225 18.5709 14.3123C18.5645 14.1021 18.4766 13.9026 18.3258 13.7561C18.175 13.6095 17.9732 13.5273 17.7629 13.5269C17.5526 13.5264 17.3504 13.6078 17.199 13.7538L14.7636 16.254C14.6168 16.4052 14.5347 16.6076 14.5347 16.8183C14.5347 17.029 14.6168 17.2314 14.7636 17.3826L17.1882 19.8774Z" fill="black"/>
<path d="M38.0592 13.743C37.9075 13.8949 37.8223 14.1007 37.8223 14.3154C37.8223 14.53 37.9075 14.7359 38.0592 14.8878L39.1392 16.011H34.8624C34.6475 16.011 34.4415 16.0963 34.2896 16.2482C34.1377 16.4001 34.0524 16.6062 34.0524 16.821C34.0524 17.0358 34.1377 17.2418 34.2896 17.3937C34.4415 17.5457 34.6475 17.631 34.8624 17.631H39.1338L38.0538 18.7542C37.9121 18.9096 37.8365 19.1141 37.8429 19.3243C37.8493 19.5345 37.9371 19.7339 38.0879 19.8805C38.2387 20.0271 38.4406 20.1093 38.6509 20.1097C38.8612 20.1101 39.0634 20.0288 39.2148 19.8828L41.6394 17.388C41.7862 17.2368 41.8683 17.0344 41.8683 16.8237C41.8683 16.613 41.7862 16.4106 41.6394 16.2594L39.2148 13.7646C39.1408 13.6864 39.052 13.6238 38.9536 13.5803C38.8552 13.5368 38.7491 13.5134 38.6415 13.5114C38.5339 13.5094 38.427 13.5288 38.327 13.5686C38.227 13.6084 38.136 13.6676 38.0592 13.743Z" fill="black"/>
<path d="M17.604 27.486C17.604 27.486 17.604 27.4374 17.604 27.4158C17.539 27.1866 17.563 26.9413 17.6712 26.729C17.7793 26.5168 17.9636 26.3532 18.1872 26.271C18.4186 26.1847 18.6747 26.1929 18.9001 26.294C19.1255 26.395 19.302 26.5808 19.3914 26.811L19.9314 29.673C19.965 29.844 20.0527 29.9996 20.1817 30.1167C20.3107 30.2339 20.474 30.3063 20.6474 30.3233C20.8208 30.3402 20.995 30.3009 21.1443 30.211C21.2935 30.121 21.4098 29.9854 21.4758 29.8242L26.0982 18.36C26.1976 18.1184 26.3886 17.926 26.6294 17.8248C26.8702 17.7236 27.1413 17.7219 27.3834 17.82C27.6237 17.9194 27.8151 18.1094 27.9162 18.349C28.0173 18.5886 28.0199 18.8583 27.9234 19.0998L24.2514 28.242C24.182 28.4388 24.1912 28.6548 24.2771 28.845C24.363 29.0352 24.519 29.1849 24.7126 29.2629C24.9062 29.3409 25.1224 29.3411 25.3161 29.2636C25.5099 29.1861 25.6663 29.0368 25.7526 28.8468L28.7874 21.3354L30.0348 18.2466C30.1342 18.0076 30.3234 17.8172 30.5617 17.7162C30.8 17.6152 31.0684 17.6118 31.3092 17.7066C31.5508 17.8059 31.7433 17.9969 31.8445 18.2378C31.9457 18.4786 31.9474 18.7497 31.8492 18.9918L27.594 29.5758C27.5256 29.7547 27.5229 29.9521 27.5862 30.1328C27.6495 30.3136 27.7749 30.4661 27.94 30.5632C28.105 30.6603 28.2992 30.6958 28.488 30.6633C28.6767 30.6308 28.8479 30.5325 28.971 30.3858C29.0197 30.327 29.0597 30.2615 29.0898 30.1914L30.2076 27.4266C30.307 27.185 30.498 26.9926 30.7388 26.8914C30.9796 26.7902 31.2507 26.7885 31.4928 26.8866C31.7331 26.986 31.9245 27.176 32.0256 27.4156C32.1267 27.6552 32.1293 27.9249 32.0328 28.1664L30.4668 32.076C30.4216 32.1755 30.3969 32.2832 30.3944 32.3925C30.3919 32.5019 30.4115 32.6106 30.4521 32.7121C30.4928 32.8136 30.5535 32.9059 30.6308 32.9833C30.708 33.0607 30.8001 33.1217 30.9015 33.1626C31.0029 33.2034 31.1116 33.2233 31.2209 33.2211C31.3303 33.2188 31.438 33.1944 31.5377 33.1494C31.6373 33.1044 31.7268 33.0397 31.8008 32.9591C31.8748 32.8786 31.9316 32.7839 31.968 32.6808L32.3136 31.8276V31.7952L32.7402 30.78C32.8396 30.5397 33.0297 30.3483 33.2693 30.2472C33.5088 30.1461 33.7786 30.1435 34.02 30.24L34.1064 30.2724C34.348 30.3717 34.5405 30.5627 34.6417 30.8035C34.7429 31.0444 34.7446 31.3155 34.6464 31.5576L31.32 39.798L28.3284 41.7096C28.1874 41.8002 28.078 41.9322 28.0152 42.0876L26.8326 45.009L18.4194 41.607L19.5966 38.6856C19.6544 38.5417 19.6694 38.3842 19.6398 38.232L17.604 27.486Z" fill="white"/>
</svg>
